img/service__07.svg

<svg width="38" height="38" viewBox="0 0 38 38" fill="none" xmlns="http://www.w3.org/2000/svg">
<path d="M33.25 38C31.274 38 29.394 37.1208 28.1215 35.6244C27.286 35.8499 26.4237 35.9639 25.5511 35.9639C24.017 35.9639 22.5028 35.6052 21.1402 34.9228C19.8386 35.9344 18.2379 36.4862 16.5782 36.4862C13.2889 36.4862 10.4246 34.331 9.47246 31.2537C8.81422 31.4408 8.13386 31.5352 7.44058 31.5352C6.35906 31.5352 5.31577 31.3081 4.33972 30.8601C3.96714 30.6891 3.80379 30.2484 3.97479 29.8759C4.14579 29.5034 4.58627 29.3399 4.95893 29.511C5.73934 29.8692 6.5743 30.0508 7.44058 30.0508C8.22611 30.0508 8.99071 29.8994 9.71308 29.601C9.91971 29.5155 10.1539 29.5279 10.3503 29.6344C10.5469 29.741 10.6849 29.9304 10.726 30.1501C11.253 32.9614 13.7142 35.0019 16.5782 35.0019C18.0477 35.0019 19.4594 34.4615 20.5533 33.4802C20.7912 33.2668 21.1388 33.2297 21.4163 33.3877C22.67 34.102 24.0998 34.4795 25.5511 34.4795C26.4426 34.4795 27.321 34.3396 28.1618 34.0637C28.4688 33.9628 28.806 34.0725 28.9951 34.3346C29.9801 35.7003 31.5707 36.5156 33.25 36.5156C33.6118 36.5156 33.9671 36.4796 34.3139 36.4079C32.9695 35.2654 32.0971 33.615 31.9498 31.8321C31.9342 31.6441 31.9908 31.4573 32.1081 31.3096C33.2919 29.8181 33.9177 28.0211 33.9177 26.1129C33.9177 25.4075 33.8297 24.7065 33.6563 24.0296C33.5784 23.7257 33.7 23.4057 33.96 23.2302C35.5603 22.15 36.5156 20.3543 36.5156 18.4265C36.5156 15.3986 34.1515 12.8619 31.1334 12.6515C30.8679 12.633 30.6326 12.4737 30.5167 12.2341C30.4009 11.9945 30.4223 11.7112 30.5726 11.4917C31.1662 10.6251 31.48 9.61029 31.48 8.5569C31.48 5.68894 29.1468 3.35573 26.2789 3.35573C25.2338 3.35573 24.226 3.6644 23.3647 4.24836C23.0374 4.47012 22.594 4.39664 22.3559 4.08129C21.1097 2.43089 19.2108 1.48438 17.1461 1.48438C13.606 1.48438 10.7421 4.25422 10.626 7.79022C10.6188 8.01177 10.5129 8.21846 10.3373 8.35377C10.1617 8.48907 9.93485 8.53864 9.7188 8.48944C9.27846 8.38872 8.8298 8.33766 8.38538 8.33766C5.10113 8.33766 2.42918 11.0095 2.42918 14.2938C2.42918 15.7605 2.96793 17.1703 3.94606 18.2634C4.08426 18.4178 4.15157 18.6229 4.13183 18.8291C4.11202 19.0354 4.00692 19.224 3.84193 19.3493C2.34368 20.4875 1.48438 22.2171 1.48438 24.0947C1.48438 24.3601 1.50196 24.6269 1.53663 24.8876C1.59066 25.294 1.30506 25.6671 0.898715 25.7211C0.49207 25.7754 0.119195 25.4895 0.0651641 25.0832C0.0218945 24.7579 0 24.4253 0 24.0947C0 22.0052 0.85166 20.0625 2.36023 18.6584C1.44289 17.3939 0.944805 15.8702 0.944805 14.2937C0.944805 10.191 4.28264 6.85321 8.38538 6.85321C8.66118 6.85321 8.93802 6.86887 9.21404 6.90004C9.45732 5.13816 10.2775 3.51381 11.572 2.25848C13.074 0.802082 15.0536 0 17.1461 0C19.455 0 21.5948 0.964027 23.1136 2.6669C24.0827 2.14477 25.1645 1.87143 26.2789 1.87143C29.9653 1.87143 32.9644 4.87053 32.9644 8.55698C32.9644 9.5265 32.7574 10.4709 32.3597 11.3383C35.5995 12.0861 38 15.007 38 18.4265C38 20.6757 36.9652 22.7816 35.2077 24.1571C35.3368 24.7984 35.4021 25.4541 35.4021 26.1129C35.4021 28.2559 34.7316 30.28 33.4597 31.9869C33.6922 33.673 34.7564 35.1746 36.2877 35.9508C36.5371 36.0773 36.6943 36.3332 36.6943 36.6128C36.6943 36.8924 36.5371 37.1483 36.2877 37.2747C35.3384 37.756 34.3164 38 33.25 38Z" fill="white"/>
<path d="M18.9985 24.6032C17.6889 24.6032 16.6235 23.5377 16.6235 22.2282V20.0068C16.6235 18.146 17.8613 16.4769 19.6336 15.9481C20.586 15.6639 21.2347 14.7689 21.2113 13.7718C21.1839 12.6093 20.2158 11.6412 19.0533 11.6138C18.4529 11.5996 17.8826 11.8225 17.4522 12.2429C17.0221 12.6631 16.7852 13.2255 16.7852 13.8265C16.7852 15.1361 15.7197 16.2015 14.4102 16.2015C13.1006 16.2015 12.0352 15.1361 12.0352 13.8265C12.0352 11.9355 12.7803 10.1663 14.1332 8.84488C15.4844 7.52512 17.2713 6.82271 19.1645 6.86509C20.9555 6.90725 22.6435 7.63244 23.9181 8.907C25.1927 10.1816 25.9178 11.8696 25.96 13.66C26.0306 16.6574 24.1627 19.3622 21.3736 20.3736V22.228C21.3735 23.5377 20.3081 24.6032 18.9985 24.6032ZM18.9959 10.1288C19.0269 10.1288 19.0577 10.1292 19.0888 10.1299C21.0314 10.1756 22.6495 11.7937 22.6952 13.7369C22.7344 15.4013 21.65 16.8955 20.0581 17.3705C18.9098 17.7131 18.1079 18.7972 18.1079 20.0068V22.2282C18.1079 22.7193 18.5074 23.1188 18.9985 23.1188C19.4896 23.1188 19.8891 22.7193 19.8891 22.2282V20.0068C19.8891 19.5787 20.168 19.1965 20.5674 19.0774C22.9268 18.3734 24.534 16.16 24.476 13.695C24.4428 12.2878 23.8719 10.9602 22.8684 9.95668C21.8649 8.95316 20.5373 8.38227 19.1301 8.3491C17.6399 8.31555 16.2335 8.8684 15.1704 9.9068C14.1058 10.9466 13.5195 12.3387 13.5195 13.8266C13.5195 14.3177 13.9191 14.7172 14.4102 14.7172C14.9013 14.7172 15.3008 14.3177 15.3008 13.8266C15.3008 12.8224 15.6965 11.8829 16.415 11.1811C17.1119 10.5004 18.0252 10.1288 18.9959 10.1288Z" fill="white"/>
<path d="M19 31.1348C17.6904 31.1348 16.625 30.0694 16.625 28.7598C16.625 27.4502 17.6904 26.3848 19 26.3848C20.3096 26.3848 21.375 27.4502 21.375 28.7598C21.375 30.0694 20.3096 31.1348 19 31.1348ZM19 27.8691C18.5089 27.8691 18.1094 28.2687 18.1094 28.7598C18.1094 29.2509 18.5089 29.6504 19 29.6504C19.4911 29.6504 19.8906 29.2509 19.8906 28.7598C19.8906 28.2687 19.4911 27.8691 19 27.8691Z" fill="white"/>
<path d="M2.05859 28.8242C1.8634 28.8242 1.67191 28.7448 1.53387 28.6068C1.39582 28.468 1.31641 28.2772 1.31641 28.082C1.31641 27.8861 1.39582 27.6953 1.53387 27.5566C1.67191 27.4185 1.86347 27.3398 2.05859 27.3398C2.25379 27.3398 2.44527 27.4185 2.58332 27.5566C2.72137 27.6946 2.80078 27.8861 2.80078 28.082C2.80078 28.2772 2.72137 28.4687 2.58332 28.6068C2.44527 28.7448 2.25379 28.8242 2.05859 28.8242Z" fill="white"/>
</svg>

<svg width="38" height="38" fill="none" xmlns="http://www.w3.org/2000/svg"><path d="M33.25 38a6.75 6.75 0 01-5.128-2.376 9.863 9.863 0 01-6.981-.702 7.442 7.442 0 01-11.668-3.67 7.412 7.412 0 01-2.032.283 7.381 7.381 0 01-3.101-.675.742.742 0 01.619-1.349c.78.358 1.615.54 2.482.54.785 0 1.55-.152 2.272-.45a.742.742 0 011.013.55 5.955 5.955 0 009.827 3.33.742.742 0 01.863-.093 8.365 8.365 0 004.135 1.092c.892 0 1.77-.14 2.61-.416a.742.742 0 01.834.27 5.261 5.261 0 005.319 2.074 6.768 6.768 0 01-2.364-4.576.741.741 0 01.158-.522 8.278 8.278 0 001.81-5.197c0-.706-.088-1.407-.262-2.083a.742.742 0 01.304-.8 5.79 5.79 0 002.556-4.803c0-3.028-2.364-5.565-5.383-5.775a.742.742 0 01-.56-1.16 5.171 5.171 0 00.907-2.935 5.207 5.207 0 00-5.201-5.201 5.173 5.173 0 00-2.914.892.742.742 0 01-1.01-.167 6.477 6.477 0 00-5.209-2.597 6.495 6.495 0 00-6.52 6.306.742.742 0 01-.907.7 5.963 5.963 0 00-7.29 5.804 5.95 5.95 0 001.517 3.97.742.742 0 01-.104 1.085 5.915 5.915 0 00-2.358 4.746c0 .265.018.532.053.793a.742.742 0 11-1.472.195A7.524 7.524 0 010 24.095c0-2.09.852-4.032 2.36-5.437a7.425 7.425 0 01-1.415-4.364c0-4.103 3.338-7.44 7.44-7.44.276 0 .553.015.829.046a7.963 7.963 0 012.358-4.642A7.967 7.967 0 0117.146 0a7.94 7.94 0 015.968 2.667 6.655 6.655 0 013.165-.796 6.694 6.694 0 016.081 9.467c3.24.748 5.64 3.669 5.64 7.089a7.27 7.27 0 01-2.792 5.73 9.92 9.92 0 01.194 1.956 9.74 9.74 0 01-1.942 5.874 5.281 5.281 0 002.828 3.964.742.742 0 010 1.324A6.657 6.657 0 0133.25 38z" fill="#fff"/><path d="M18.998 24.603a2.378 2.378 0 01-2.375-2.375v-2.221c0-1.861 1.238-3.53 3.01-4.059a2.22 2.22 0 001.578-2.176 2.235 2.235 0 00-2.158-2.158c-.6-.014-1.17.208-1.6.629-.43.42-.668.982-.668 1.583a2.378 2.378 0 01-2.375 2.375 2.378 2.378 0 01-2.375-2.375 6.91 6.91 0 012.098-4.981 6.922 6.922 0 015.032-1.98 6.928 6.928 0 014.753 2.042 6.928 6.928 0 012.042 4.753 6.982 6.982 0 01-4.586 6.714v1.854a2.378 2.378 0 01-2.375 2.375zm-.002-14.474h.093c1.942.047 3.56 1.665 3.606 3.608a3.707 3.707 0 01-2.637 3.633 2.761 2.761 0 00-1.95 2.637v2.221a.892.892 0 001.781 0v-2.221a.97.97 0 01.678-.93 5.492 5.492 0 003.909-5.382 5.45 5.45 0 00-1.608-3.738 5.45 5.45 0 00-3.738-1.608 5.447 5.447 0 00-3.96 1.558 5.437 5.437 0 00-1.65 3.92.892.892 0 001.78 0 3.67 3.67 0 011.115-2.646 3.667 3.667 0 012.58-1.052zM19 31.135a2.378 2.378 0 01-2.375-2.375A2.378 2.378 0 0119 26.385a2.378 2.378 0 012.375 2.375A2.378 2.378 0 0119 31.135zm0-3.266a.892.892 0 000 1.781.892.892 0 000-1.78zm-16.941.955a.748.748 0 01-.525-.217.75.75 0 01-.218-.525.75.75 0 01.218-.525.747.747 0 011.05 0c.137.138.217.33.217.525s-.08.387-.218.525a.748.748 0 01-.524.217z" fill="#fff"/></svg>
